X: 9189
T: Daly's Mill
R: polka
M: 2/4
K: Amajor
|:E/|A>B ce/e/|fe cB|A>B ce|fg a2|
A>B ce|fe cB|AF FE|A2 A3/2:|
|:e/|fe ce/e/|fe cB|A>B ce|fg a>e|
fe ce/e/|fe c/d/c/B/|AF FE|A2 A3/2:|

